X: 1
T: S\onderhoning 2
O: trad Danmark
Z: John Chambers <jc@trillian.mit.edu>
M: 2/4
L: 1/16
K: D
|: "D"A2d2 "A7"cdeA | "D"d2d2 "A7"cdeA | "D"d2d2 "A7"cdeA | "D"d4 d2e2 \
|  "D"f2f2 "A7"efge | "D"f2f2 "A7"efge | "D"f2f2 "A7"efge | "D"d4 d2e2 ||
|| "D"a3g f2e2 | "Bm"d2c2 B4 | "Em"g3f e2d2 | "A7"c2B2 A4 \
|  "D"A2d2 "A7"cdeA | "D"d2d2 "A7"cdeA | "D"d2d2 "A7"cdeA | "D"d4 d4 :|
